dist/img/svg/property__item-icon--7.svg

<svg width="48" height="48" viewBox="0 0 48 48" fill="none" xmlns="http://www.w3.org/2000/svg">
<circle cx="24" cy="24" r="24" fill="#1F2120"/>
<path d="M14.5 16C14.224 16 14 16.224 14 16.5V17.5C14 17.776 14.224 18 14.5 18H19.5C19.776 18 20 17.776 20 17.5V16.5C20 16.224 19.776 16 19.5 16H14.5ZM28.5 16C28.224 16 28 16.224 28 16.5V17.5C28 17.776 28.224 18 28.5 18H33.5C33.776 18 34 17.776 34 17.5V16.5C34 16.224 33.776 16 33.5 16H28.5ZM16 20V22.2715C15.6965 22.4467 15.4443 22.6986 15.2688 23.002C15.0933 23.3054 15.0006 23.6495 15 24C15.0006 24.3505 15.0933 24.6946 15.2688 24.998C15.4443 25.3014 15.6965 25.5533 16 25.7285V28H18V25.7305C18.3025 25.5549 18.5537 25.303 18.7285 25H29.2695C29.4451 25.3025 29.697 25.5537 30 25.7285V28H32V25.7305C32.3038 25.5551 32.5561 25.3028 32.7317 24.9991C32.9072 24.6954 32.9997 24.3508 33 24C32.9994 23.6495 32.9067 23.3054 32.7312 23.002C32.5557 22.6986 32.3035 22.4467 32 22.2715V20H30V22.2695C29.6975 22.4451 29.4463 22.697 29.2715 23H18.7285C18.5537 22.697 18.3025 22.4451 18 22.2695V20H16ZM14.5 30C14.224 30 14 30.224 14 30.5V31.5C14 31.776 14.224 32 14.5 32H19.5C19.776 32 20 31.776 20 31.5V30.5C20 30.224 19.776 30 19.5 30H14.5ZM28.5 30C28.224 30 28 30.224 28 30.5V31.5C28 31.776 28.224 32 28.5 32H33.5C33.776 32 34 31.776 34 31.5V30.5C34 30.224 33.776 30 33.5 30H28.5Z" fill="white"/>
</svg>

<svg width="48" height="48" viewBox="0 0 48 48" fill="none" xmlns="http://www.w3.org/2000/svg"><circle cx="24" cy="24" r="24" fill="#1F2120"/><path d="M14.5 16a.5.5 0 00-.5.5v1a.5.5 0 00.5.5h5a.5.5 0 00.5-.5v-1a.5.5 0 00-.5-.5h-5zm14 0a.5.5 0 00-.5.5v1a.5.5 0 00.5.5h5a.5.5 0 00.5-.5v-1a.5.5 0 00-.5-.5h-5zM16 20v2.271A2 2 0 0015 24a2 2 0 001 1.729V28h2v-2.27a2 2 0 00.729-.73h10.54a2 2 0 00.731.729V28h2v-2.27A2.001 2.001 0 0033 24a2 2 0 00-1-1.729V20h-2v2.27a2 2 0 00-.729.73H18.729a2 2 0 00-.728-.73V20h-2zm-1.5 10a.5.5 0 00-.5.5v1a.5.5 0 00.5.5h5a.5.5 0 00.5-.5v-1a.5.5 0 00-.5-.5h-5zm14 0a.5.5 0 00-.5.5v1a.5.5 0 00.5.5h5a.5.5 0 00.5-.5v-1a.5.5 0 00-.5-.5h-5z" fill="#fff"/></svg>
